X:1
T:Tis good to live in canan
T:Tis good to live in canan
T:Violin
T:Mrs.C. H. Morris Adapted by William Duvall
L:1/8
M:4/4
K:D
V:1 treble nm="Piano" snm="Pno."
V:1
 A2 d3 d d2 | A2 B2 A4 | D2 F3 F F2 | E2 F4 z2 | A2 d3 d d2 | A2 B2 A4 | d2 e2 d2 c2 | B2 A6 | %8
 G2 F2 F z F2 | A2 A2 d4 | d2 f3 f f2 | e2 d6 | A2 d2 d2 c2 | B2 A4 f2 | e3 d d4 |] %15

